icons/arrow-curved-downright.svg

<svg width="24" height="24" viewBox="0 0 24 24" fill="none" xmlns="http://www.w3.org/2000/svg">
<path fill-rule="evenodd" clip-rule="evenodd" d="M14.172 9.06965C14.4649 8.77675 14.9398 8.77675 15.2327 9.06965L18.6327 12.4696C18.9032 12.7402 19.0773 13.0993 19.0773 13.5C19.0773 13.9007 18.9032 14.2598 18.6327 14.5303L15.2327 17.9303C14.9398 18.2232 14.4649 18.2232 14.172 17.9303C13.8791 17.6374 13.8791 17.1625 14.172 16.8696L17.5417 13.5L14.172 10.1303C13.8791 9.83741 13.8791 9.36254 14.172 9.06965Z" fill="black"/>
<path fill-rule="evenodd" clip-rule="evenodd" d="M5.60229 5.84998C6.01651 5.84998 6.35229 6.18576 6.35229 6.59998H5.60229C6.35229 6.59998 6.3523 6.60029 6.35229 6.59998L6.35241 6.60796C6.35256 6.61705 6.35288 6.6324 6.35359 6.6536C6.355 6.69603 6.35795 6.76172 6.36406 6.84732C6.37631 7.01879 6.40117 7.26864 6.45147 7.57043C6.55265 8.17756 6.75363 8.9756 7.14812 9.76457C7.54113 10.5506 8.11887 11.3138 8.97145 11.8822C9.81932 12.4474 10.9835 12.85 12.6023 12.85H18.3976L18.3976 14.35H12.6023C10.7211 14.35 9.26027 13.8775 8.13939 13.1303C7.02322 12.3861 6.28846 11.3994 5.80647 10.4354C5.32596 9.47435 5.08944 8.52239 4.97187 7.81702C4.9128 7.46256 4.88297 7.16554 4.86787 6.95419C4.86032 6.84839 4.85642 6.76369 4.85442 6.70358C4.85342 6.67351 4.85289 6.64955 4.85261 6.63215L4.85235 6.611L4.8523 6.6042L4.8523 6.60177C4.8523 6.60135 4.85229 6.59998 5.60229 6.59998H4.85229C4.85229 6.18576 5.18808 5.84998 5.60229 5.84998Z" fill="black"/>
</svg>

<svg xmlns="http://www.w3.org/2000/svg" fill="none" viewBox="0 0 24 24">
  <path fill="#000" fill-rule="evenodd" d="M14.172 9.07a.75.75 0 0 1 1.06 0l3.4 3.4c.271.27.445.63.445 1.03s-.174.76-.444 1.03l-3.4 3.4a.75.75 0 0 1-1.061-1.06l3.37-3.37-3.37-3.37a.75.75 0 0 1 0-1.06Z" clip-rule="evenodd"/>
  <path fill="#000" fill-rule="evenodd" d="M5.602 5.85a.75.75 0 0 1 .75.75h-.75.75v.008a5.16 5.16 0 0 0 .012.24c.012.17.037.42.087.722.102.608.303 1.406.697 2.195.393.786.97 1.549 1.823 2.117.848.565 2.012.968 3.631.968h5.796v1.5h-5.796c-1.88 0-3.342-.473-4.463-1.22-1.116-.744-1.85-1.73-2.333-2.695a9.352 9.352 0 0 1-.834-2.618 9.342 9.342 0 0 1-.118-1.113 4.192 4.192 0 0 1-.001-.072v-.03s0-.002.75-.002h-.75a.75.75 0 0 1 .75-.75Z" clip-rule="evenodd"/>
</svg>
